ui/StatusQ/src/assets/img/icons/tiny/SNT.svg

<svg fill="none" height="17" viewBox="0 0 16 17" width="16" xmlns="http://www.w3.org/2000/svg"><path clip-rule="evenodd" d="m10.3435 8.32275c-1.72489.0994-2.80587-.3024-4.53099-.20276-.42786.02402-.85275.08603-1.2697.1853.25464-3.19024 2.51247-5.98099 5.58269-6.15839 1.8842-.10871 3.7673 1.05457 3.8695 2.94301.1005 1.85608-1.315 3.09805-3.6515 3.23284zm-4.63196 6.52555c-1.80497.1019-3.60877-.9871-3.70673-2.7543-.09633-1.7371 1.25972-2.89919 3.49805-3.02537 1.65223-.09312 2.68796.28308 4.34019.18973.40965-.02246.81665-.08049 1.21635-.17343-.2435 2.98557-2.40643 5.59757-5.34786 5.76337z" fill="#000" fill-rule="evenodd"/></svg>

<svg width="16" height="17" viewBox="0 0 16 17" fill="none" xmlns="http://www.w3.org/2000/svg">
<path fill-rule="evenodd" clip-rule="evenodd" d="M10.3435 8.32275C8.61861 8.42215 7.53763 8.02035 5.81251 8.11999C5.38465 8.14401 4.95976 8.20602 4.54281 8.30529C4.79745 5.11505 7.05528 2.3243 10.1255 2.1469C12.0097 2.03819 13.8928 3.20147 13.995 5.08991C14.0955 6.94599 12.68 8.18796 10.3435 8.32275ZM5.71154 14.8483C3.90657 14.9502 2.10277 13.8612 2.00481 12.094C1.90848 10.3569 3.26453 9.19481 5.50286 9.06863C7.15509 8.97551 8.19082 9.35171 9.84305 9.25836C10.2527 9.2359 10.6597 9.17787 11.0594 9.08493C10.8159 12.0705 8.65297 14.6825 5.71154 14.8483Z" fill="black"/>
</svg>
